svgs/duotone/charging-station.svg

<svg xmlns="http://www.w3.org/2000/svg" viewBox="0 0 576 512"><defs><style>.fa-secondary{opacity:.4}</style></defs><path d="M256 0H96a64 64 0 0 0-64 64v384h288V64a64 64 0 0 0-64-64zm4.09 175.76l-93.7 139A12.41 12.41 0 0 1 156 320c-7.67 0-13.47-6.28-11.67-12.92l23-83.08H108c-7.25 0-12.85-5.59-11.89-11.89l16-107C112.9 99.9 118 96 124 96h68c7.88 0 13.62 6.54 11.6 13.21L192 160h57.7c9.24 0 15.01 8.78 10.39 15.76z" class="fa-secondary"/><path d="M336 448H16a16 16 0 0 0-16 16v32a16 16 0 0 0 16 16h320a16 16 0 0 0 16-16v-32a16 16 0 0 0-16-16zM108 224h59.33l-23 83.08c-1.8 6.64 4 12.92 11.67 12.92a12.41 12.41 0 0 0 10.39-5.24l93.7-139c4.62-7-1.15-15.76-10.39-15.76H192l11.6-50.79c2-6.67-3.72-13.21-11.6-13.21h-68c-6 0-11.1 3.9-11.89 9.11l-16 107c-.96 6.3 4.64 11.89 11.89 11.89zm452-96h-16V80a16 16 0 0 0-32 0v48h-32V80a16 16 0 0 0-32 0v48h-16a16 16 0 0 0-16 16v32c0 35.76 23.62 65.69 56 75.93v118.49c0 13.95-9.5 26.92-23.26 29.19A28 28 0 0 1 416 372v-28a88 88 0 0 0-88-88h-8v48h8a40 40 0 0 1 40 40v24.61c0 39.67 28.92 75.16 68.41 79a76.08 76.08 0 0 0 83.22-68.18c.24-2.47.37-4.95.37-7.43V251.93c32.38-10.24 56-40.17 56-75.93v-32a16 16 0 0 0-16-16z" class="fa-primary"/></svg>

<svg xmlns="http://www.w3.org/2000/svg" viewBox="0 0 576 512"><!--! Font Awesome Pro 6.0.0-alpha3 by @fontawesome - https://fontawesome.com License - https://fontawesome.com/license (Commercial License) --><defs><style>.fa-secondary{opacity:.4}</style></defs><path class="fa-primary" d="M560 128H544V80C544 71.13 536.9 64 528 64S512 71.13 512 80V128h-32V80C480 71.13 472.9 64 464 64S448 71.13 448 80V128h-16C423.1 128 416 135.1 416 144v32c0 35.75 23.62 65.75 56 75.88v118.6c0 14-9.531 26.92-23.28 29.17C431.2 402.5 416 389 416 372V344C416 295.4 376.6 256 328 256H320v48h8c22.12 0 40 17.88 40 40v24.62c0 39.63 28.88 75.13 68.38 79C481.8 452 520 416.4 520 372V251.9C552.4 241.8 576 211.8 576 176v-32C576 135.1 568.9 128 560 128zM336 448h-320C7.125 448 0 455.1 0 464v32C0 504.9 7.125 512 16 512h320c8.875 0 16-7.125 16-16v-32C352 455.1 344.9 448 336 448z"/><path class="fa-secondary" d="M320 64c0-35.38-28.62-64-64-64H96C60.62 0 32 28.62 32 64v384h288V64zM254.4 175.8L166.4 314.8C164.2 318.1 160.1 320 156 320c-7.625 0-13.5-6.25-11.62-12.88L167.4 224H108C100.8 224 95.12 218.4 96.13 212.1l16-106.1C112.9 99.88 117.1 96 124 96H192c7.875 0 13.62 6.5 11.62 13.25L192 160h51.99C253.2 160 258.1 168.8 254.4 175.8z"/></svg>
